packages/design-system/src/icons/assets/btn_festival_delete.svg

<svg width="24" height="24" viewBox="0 0 24 24" fill="none" xmlns="http://www.w3.org/2000/svg">
<rect width="24" height="24" rx="12" fill="#323339"/>
<path d="M12.0001 13.0313L9.8251 15.2063C9.6876 15.3438 9.5126 15.4126 9.3001 15.4126C9.0876 15.4126 8.9126 15.3438 8.7751 15.2063C8.6376 15.0688 8.56885 14.8938 8.56885 14.6813C8.56885 14.4688 8.6376 14.2938 8.7751 14.1563L10.9501 11.9813L8.7751 9.8251C8.6376 9.6876 8.56885 9.5126 8.56885 9.3001C8.56885 9.0876 8.6376 8.9126 8.7751 8.7751C8.9126 8.6376 9.0876 8.56885 9.3001 8.56885C9.5126 8.56885 9.6876 8.6376 9.8251 8.7751L12.0001 10.9501L14.1563 8.7751C14.2938 8.6376 14.4688 8.56885 14.6813 8.56885C14.8938 8.56885 15.0688 8.6376 15.2063 8.7751C15.3563 8.9251 15.4313 9.10322 15.4313 9.30947C15.4313 9.51572 15.3563 9.6876 15.2063 9.8251L13.0313 11.9813L15.2063 14.1563C15.3438 14.2938 15.4126 14.4688 15.4126 14.6813C15.4126 14.8938 15.3438 15.0688 15.2063 15.2063C15.0563 15.3563 14.8782 15.4313 14.672 15.4313C14.4657 15.4313 14.2938 15.3563 14.1563 15.2063L12.0001 13.0313Z" fill="#E9FFAC"/>
</svg>

<svg xmlns="http://www.w3.org/2000/svg" width="24" height="24" fill="none"><rect width="24" height="24" fill="#323339" rx="12"/><path fill="#E9FFAC" d="m12 13.031-2.175 2.175a.7.7 0 0 1-.525.207.7.7 0 0 1-.525-.207.7.7 0 0 1-.206-.525q0-.318.206-.525l2.175-2.175-2.175-2.156A.7.7 0 0 1 8.57 9.3q0-.318.206-.525A.7.7 0 0 1 9.3 8.57q.32 0 .525.206L12 10.95l2.156-2.175a.7.7 0 0 1 .525-.206q.32 0 .525.206a.73.73 0 0 1 .225.534.67.67 0 0 1-.225.516l-2.175 2.156 2.175 2.175a.7.7 0 0 1 .207.525.7.7 0 0 1-.207.525.73.73 0 0 1-.534.225.67.67 0 0 1-.516-.225z"/></svg>
